src/assets/sun.svg

<svg xmlns="http://www.w3.org/2000/svg" width="30" height="30" viewBox="0 0 30 30" fill="none">
<path d="M7.56537 5.75793L7.07765 5.2682C6.58993 4.77848 5.80207 4.79103 5.32685 5.2682L5.31435 5.28076C4.82663 5.77049 4.82663 6.56158 5.31435 7.03875L5.80207 7.52848C6.28979 8.0182 7.06514 8.0182 7.55287 7.52848L7.56537 7.51592C8.05309 7.03875 8.05309 6.2351 7.56537 5.75793ZM3.76364 13.7442H2.48806C1.80025 13.7442 1.25 14.2967 1.25 14.9874V14.9999C1.25 15.6906 1.80025 16.2431 2.48806 16.2431H3.75114C4.45146 16.2556 5.00171 15.7031 5.00171 15.0125V14.9999C5.00171 14.2967 4.45146 13.7442 3.76364 13.7442ZM15.0188 1.24994H15.0063C14.3059 1.24994 13.7557 1.80245 13.7557 2.49309V3.69857C13.7557 4.38921 14.3059 4.94172 14.9937 4.94172H15.0063C15.7066 4.95428 16.2568 4.40177 16.2568 3.71113V2.49309C16.2568 1.80245 15.7066 1.24994 15.0188 1.24994ZM24.6982 5.28076C24.2104 4.79103 23.4226 4.79103 22.9349 5.2682L22.4471 5.75793C21.9594 6.24766 21.9594 7.03875 22.4471 7.51592L22.4596 7.52848C22.9474 8.0182 23.7352 8.0182 24.2104 7.52848L24.6982 7.03875C25.1859 6.54902 25.1859 5.77049 24.6982 5.28076ZM22.4346 24.2419L22.9224 24.7317C23.4101 25.2214 24.1979 25.2214 24.6857 24.7317C25.1734 24.2419 25.1734 23.4509 24.6857 22.9611L24.1979 22.4714C23.7102 21.9817 22.9224 21.9942 22.4471 22.4714C21.9469 22.9737 21.9469 23.7522 22.4346 24.2419ZM25.0108 14.9874V14.9999C25.0108 15.6906 25.5611 16.2431 26.2489 16.2431H27.5119C28.1998 16.2431 28.75 15.6906 28.75 14.9999V14.9874C28.75 14.2967 28.1998 13.7442 27.5119 13.7442H26.2489C25.5611 13.7442 25.0108 14.2967 25.0108 14.9874ZM15.0063 7.46569C10.8669 7.46569 7.50284 10.8435 7.50284 14.9999C7.50284 19.1563 10.8669 22.5342 15.0063 22.5342C19.1456 22.5342 22.5097 19.1563 22.5097 14.9999C22.5097 10.8435 19.1456 7.46569 15.0063 7.46569ZM14.9937 28.7499H15.0063C15.6941 28.7499 16.2443 28.1974 16.2443 27.5068V26.3013C16.2443 25.6107 15.6941 25.0582 15.0063 25.0582H14.9937C14.3059 25.0582 13.7557 25.6107 13.7557 26.3013V27.5068C13.7557 28.1974 14.3059 28.7499 14.9937 28.7499ZM5.31435 24.7191C5.80207 25.2088 6.58993 25.2088 7.07765 24.7191L7.56537 24.2294C8.05309 23.7397 8.04059 22.9486 7.56537 22.4714L7.55287 22.4588C7.06514 21.9691 6.27729 21.9691 5.78956 22.4588L5.30184 22.9486C4.82663 23.4509 4.82663 24.2294 5.31435 24.7191Z" fill="white" fill-opacity="0.8"/>
</svg>

<svg xmlns="http://www.w3.org/2000/svg" width="30" height="30" fill="none"><path fill="#fff" fill-opacity=".8" d="m7.565 5.758-.487-.49a1.24 1.24 0 0 0-1.751 0l-.013.013a1.24 1.24 0 0 0 0 1.758l.488.49c.488.49 1.263.49 1.75 0l.013-.013a1.24 1.24 0 0 0 0-1.758m-3.801 7.986H2.488c-.688 0-1.238.553-1.238 1.243V15c0 .69.55 1.243 1.238 1.243h1.263c.7.013 1.25-.54 1.25-1.23V15c0-.703-.55-1.256-1.237-1.256M15.019 1.25h-.013c-.7 0-1.25.552-1.25 1.243V3.7c0 .69.55 1.243 1.238 1.243h.012c.7.012 1.25-.54 1.25-1.23V2.492c0-.69-.55-1.243-1.237-1.243m9.68 4.03a1.253 1.253 0 0 0-1.764-.012l-.488.49a1.24 1.24 0 0 0 0 1.758l.013.012c.487.49 1.275.49 1.75 0l.488-.49a1.24 1.24 0 0 0 0-1.757m-2.264 18.962.487.49c.488.49 1.276.49 1.764 0 .487-.49.487-1.281 0-1.77l-.488-.49a1.24 1.24 0 0 0-1.75 0c-.501.502-.501 1.28-.013 1.77m2.576-9.255V15c0 .69.55 1.243 1.238 1.243h1.263c.688 0 1.238-.552 1.238-1.243v-.013c0-.69-.55-1.243-1.238-1.243h-1.263c-.688 0-1.238.553-1.238 1.243M15.006 7.466c-4.14 0-7.503 3.378-7.503 7.534s3.364 7.534 7.503 7.534S22.51 19.156 22.51 15s-3.364-7.534-7.504-7.534m-.012 21.284h.012c.688 0 1.238-.553 1.238-1.243V26.3c0-.69-.55-1.243-1.238-1.243h-.012c-.688 0-1.238.553-1.238 1.243v1.206c0 .69.55 1.243 1.238 1.243m-9.68-4.03c.488.489 1.276.489 1.764 0l.487-.49a1.25 1.25 0 0 0 0-1.759l-.012-.012a1.24 1.24 0 0 0-1.763 0l-.488.49a1.266 1.266 0 0 0 .012 1.77"/></svg>
